poi/svg/2203.svg

<?xml version="1.0" encoding="UTF-8" standalone="no"?>
<svg
   xmlns:dc="http://purl.org/dc/elements/1.1/"
   xmlns:cc="http://creativecommons.org/ns#"
   xmlns:rdf="http://www.w3.org/1999/02/22-rdf-syntax-ns#"
   xmlns:svg="http://www.w3.org/2000/svg"
   xmlns="http://www.w3.org/2000/svg"
   xmlns:sodipodi="http://sodipodi.sourceforge.net/DTD/sodipodi-0.dtd"
   xmlns:inkscape="http://www.inkscape.org/namespaces/inkscape"
   inkscape:version="1.0 (4035a4fb49, 2020-05-01)"
   sodipodi:docname="2203.svg"
   id="svg20"
   version="1.2"
   viewBox="0 0 42.519639 42.519639"
   height="14.999999mm"
   width="14.999999mm">
  <metadata
     id="metadata24">
    <rdf:RDF>
      <cc:Work
         rdf:about="">
        <dc:format>image/svg+xml</dc:format>
        <dc:type
           rdf:resource="http://purl.org/dc/dcmitype/StillImage" />
        <dc:title>Qt SVG Document</dc:title>
      </cc:Work>
    </rdf:RDF>
  </metadata>
  <sodipodi:namedview
     inkscape:current-layer="svg20"
     inkscape:window-maximized="0"
     inkscape:window-y="0"
     inkscape:window-x="0"
     inkscape:cy="28.346482"
     inkscape:cx="28.346482"
     inkscape:zoom="5.8410537"
     showgrid="false"
     id="namedview22"
     inkscape:window-height="480"
     inkscape:window-width="1034"
     inkscape:pageshadow="2"
     inkscape:pageopacity="0"
     guidetolerance="10"
     gridtolerance="10"
     objecttolerance="10"
     borderopacity="1"
     bordercolor="#666666"
     pagecolor="#ffffff" />
  <title
     id="title2">Qt SVG Document</title>
  <desc
     id="desc4">Generated with Qt</desc>
  <defs
     id="defs6" />
  <g
     transform="translate(5.25984,5.25984)"
     id="g18"
     stroke-linejoin="bevel"
     stroke-linecap="square"
     fill-rule="evenodd"
     stroke-width="1"
     stroke="#000000"
     fill="none">
    <g
       id="g10"
       font-style="normal"
       font-weight="400"
       font-size="7.8px"
       font-family="'MS Shell Dlg 2'"
       stroke="none"
       fill-opacity="1"
       fill="#ef4b65">
      <path
         id="path8"
         d="M 37.2598,16 C 37.2598,27.7415 27.7415,37.2598 16,37.2598 4.25851,37.2598 -5.25984,27.7415 -5.25984,16 -5.25984,4.25851 4.25851,-5.25984 16,-5.25984 27.7415,-5.25984 37.2598,4.25851 37.2598,16"
         fill-rule="evenodd"
         vector-effect="non-scaling-stroke" />
    </g>
    <g
       id="g14"
       font-style="normal"
       font-weight="400"
       font-size="7.8px"
       font-family="'MS Shell Dlg 2'"
       transform="translate(15.4331,12.5984)"
       stroke="none"
       fill-opacity="0.94902"
       fill="#ffffff">
      <path
         id="path12"
         d="m -12.3086,7.97314 c 0,-1.28776 0.077,-2.54752 0.231,-3.77929 0.1539,-1.23177 0.4829,-2.33407 0.9868,-3.306887 0.5039,-0.9728191 1.20726,-1.760173 2.11009,-2.362063 0.90283,-0.60189 2.09611,-0.90283 3.57983,-0.90283 h 2.03662 V 10.7236 H -5.04395 C -5.12793,9.92578 -5.42887,9.2679 -5.94678,8.75 -6.46468,8.2321 -7.08057,7.97314 -7.79443,7.97314 c -0.75586,0 -1.40324,0.25896 -1.94214,0.77686 -0.53893,0.5179 -0.85733,1.17578 -0.95533,1.9736 h -1.6167 V 7.97314 m 6.90772,-9.36425 c -1.28776,0 -2.28857,0.24845 -3.00244,0.745358 -0.71387,0.496908 -1.24927,1.0778 -1.60618,1.742672 -0.357,0.66488 -0.5809,1.32626 -0.6719,1.98413 -0.091,0.65788 -0.1365,1.14079 -0.1365,1.44874 h 5.41702 v -5.9209 m 1.67969,-4.17823 0.35693,2.01563 h -2.81347 l 0.44091,-2.01563 h 2.01563 M 7.28076,9.31689 c 0.60189,0 1.11979,0.22046 1.55371,0.66138 0.43392,0.44093 0.65088,1.00433 0.65088,1.69023 0,0.6298 -0.21696,1.1757 -0.65088,1.6377 -0.43392,0.4619 -0.95182,0.6928 -1.55371,0.6928 -0.57389,0 -1.0743,-0.2309 -1.50122,-0.6928 -0.42692,-0.462 -0.64038,-1.0079 -0.64038,-1.6377 0,-0.6859 0.21346,-1.2493 0.64038,-1.69023 C 6.20646,9.53735 6.70687,9.31689 7.28076,9.31689 m -15.07519,0 c 0.57389,0 1.0603,0.22046 1.45922,0.66138 0.39893,0.44093 0.59839,1.00433 0.59839,1.69023 0,0.6298 -0.19946,1.1757 -0.59839,1.6377 -0.39892,0.4619 -0.88533,0.6928 -1.45922,0.6928 -0.67188,0 -1.20728,-0.2309 -1.6062,-0.6928 -0.39893,-0.462 -0.59839,-1.0079 -0.59839,-1.6377 0,-0.6859 0.19946,-1.2493 0.59839,-1.69023 0.39892,-0.44092 0.93432,-0.66138 1.6062,-0.66138 M 11.7949,-3.55371 V 9.56885 H 10.0522 C 9.89827,9.37288 9.69531,9.18392 9.44336,9.00195 9.2054,8.86198 8.91496,8.729 8.57202,8.60303 8.22909,8.47705 7.79867,8.41406 7.28076,8.41406 6.77686,8.41406 6.34993,8.47705 6,8.60303 5.65007,8.729 5.36312,8.86198 5.13916,9.00195 4.88721,9.18392 4.68424,9.37288 4.53027,9.56885 H -2.12549 V -3.55371 H 11.7949 M 8.79248,0.876465 H 6.20996 V -1.87402 H 3.54346 V 0.876465 H 0.960938 V 3.71094 H 3.54346 v 2.85547 h 2.6665 V 3.71094 H 8.79248 V 0.876465"
         fill-rule="evenodd"
         vector-effect="none" />
    </g>
    <g
       id="g16"
       font-style="normal"
       font-weight="400"
       font-size="7.8px"
       font-family="'MS Shell Dlg 2'"
       stroke="none"
       fill-opacity="1"
       fill="#ef4b65" />
  </g>
</svg>

<?xml version="1.0" encoding="UTF-8" standalone="no"?>
<svg width="11.2889mm" height="11.2889mm"
 viewBox="0 0 32 32"
 xmlns="http://www.w3.org/2000/svg" xmlns:xlink="http://www.w3.org/1999/xlink"  version="1.2" baseProfile="tiny">
<title>Qt SVG Document</title>
<desc>Generated with Qt</desc>
<defs>
</defs>
<g fill="none" stroke="black" stroke-width="1" fill-rule="evenodd" stroke-linecap="square" stroke-linejoin="bevel" >

<g fill="#ef4b65" fill-opacity="1" stroke="none" transform="matrix(1,0,0,1,0,0)"
font-family="MS Shell Dlg 2" font-size="7.8" font-weight="400" font-style="normal" 
>
<path vector-effect="non-scaling-stroke" fill-rule="evenodd" d="M37.2598,16 C37.2598,27.7415 27.7415,37.2598 16,37.2598 C4.25851,37.2598 -5.25984,27.7415 -5.25984,16 C-5.25984,4.25851 4.25851,-5.25984 16,-5.25984 C27.7415,-5.25984 37.2598,4.25851 37.2598,16 "/>
</g>

<g fill="#ffffff" fill-opacity="0.94902" stroke="none" transform="matrix(1,0,0,1,15.4331,12.5984)"
font-family="MS Shell Dlg 2" font-size="7.8" font-weight="400" font-style="normal" 
>
<path vector-effect="none" fill-rule="evenodd" d="M-12.3086,7.97314 C-12.3086,6.68538 -12.2316,5.42562 -12.0776,4.19385 C-11.9237,2.96208 -11.5947,1.85978 -11.0908,0.886963 C-10.5869,-0.0858561 -9.88354,-0.87321 -8.98071,-1.4751 C-8.07788,-2.07699 -6.8846,-2.37793 -5.40088,-2.37793 L-3.36426,-2.37793 L-3.36426,10.7236 L-5.04395,10.7236 C-5.12793,9.92578 -5.42887,9.2679 -5.94678,8.75 C-6.46468,8.2321 -7.08057,7.97314 -7.79443,7.97314 C-8.55029,7.97314 -9.19767,8.2321 -9.73657,8.75 C-10.2755,9.2679 -10.5939,9.92578 -10.6919,10.7236 L-12.3086,10.7236 L-12.3086,7.97314 M-5.40088,-1.39111 C-6.68864,-1.39111 -7.68945,-1.14266 -8.40332,-0.645752 C-9.11719,-0.148844 -9.65259,0.432048 -10.0095,1.09692 C-10.3665,1.7618 -10.5904,2.42318 -10.6814,3.08105 C-10.7724,3.73893 -10.8179,4.22184 -10.8179,4.52979 L-5.40088,4.52979 L-5.40088,-1.39111 M-3.72119,-5.56934 L-3.36426,-3.55371 L-6.17773,-3.55371 L-5.73682,-5.56934 L-3.72119,-5.56934 M7.28076,9.31689 C7.88265,9.31689 8.40055,9.53735 8.83447,9.97827 C9.26839,10.4192 9.48535,10.9826 9.48535,11.6685 C9.48535,12.2983 9.26839,12.8442 8.83447,13.3062 C8.40055,13.7681 7.88265,13.999 7.28076,13.999 C6.70687,13.999 6.20646,13.7681 5.77954,13.3062 C5.35262,12.8442 5.13916,12.2983 5.13916,11.6685 C5.13916,10.9826 5.35262,10.4192 5.77954,9.97827 C6.20646,9.53735 6.70687,9.31689 7.28076,9.31689 M-7.79443,9.31689 C-7.22054,9.31689 -6.73413,9.53735 -6.33521,9.97827 C-5.93628,10.4192 -5.73682,10.9826 -5.73682,11.6685 C-5.73682,12.2983 -5.93628,12.8442 -6.33521,13.3062 C-6.73413,13.7681 -7.22054,13.999 -7.79443,13.999 C-8.46631,13.999 -9.00171,13.7681 -9.40063,13.3062 C-9.79956,12.8442 -9.99902,12.2983 -9.99902,11.6685 C-9.99902,10.9826 -9.79956,10.4192 -9.40063,9.97827 C-9.00171,9.53735 -8.46631,9.31689 -7.79443,9.31689 M11.7949,-3.55371 L11.7949,9.56885 L10.0522,9.56885 C9.89827,9.37288 9.69531,9.18392 9.44336,9.00195 C9.2054,8.86198 8.91496,8.729 8.57202,8.60303 C8.22909,8.47705 7.79867,8.41406 7.28076,8.41406 C6.77686,8.41406 6.34993,8.47705 6,8.60303 C5.65007,8.729 5.36312,8.86198 5.13916,9.00195 C4.88721,9.18392 4.68424,9.37288 4.53027,9.56885 L-2.12549,9.56885 L-2.12549,-3.55371 L11.7949,-3.55371 M8.79248,0.876465 L6.20996,0.876465 L6.20996,-1.87402 L3.54346,-1.87402 L3.54346,0.876465 L0.960938,0.876465 L0.960938,3.71094 L3.54346,3.71094 L3.54346,6.56641 L6.20996,6.56641 L6.20996,3.71094 L8.79248,3.71094 L8.79248,0.876465"/>
</g>

<g fill="#ef4b65" fill-opacity="1" stroke="none" transform="matrix(1,0,0,1,0,0)"
font-family="MS Shell Dlg 2" font-size="7.8" font-weight="400" font-style="normal" 
>
</g>
</g>
</svg>
